X: 2
T: Jacky Bull
B: Thomas Wilson "A Companion to the Ball Room" (London: D.Mackay, 1816)
N: The tune is from Sir Felix's first-act aria in Samuel Arnold and John
N: Keeffe's musical "The Agreeable Surprise" (London, 1781)
%Q: 3/8=110
M: 6/8
L: 1/8
K: D
|:"D"d2d    A2A | "G"B2B "A"A2A |  "D"ded    d2e |      f3    a2f \
| "D"d2d    A2A | "G"B2B "D"A2f |  "G"gab "D"afd | "A7 "e3 "D"d3  :|
|:"D"d{e}ff fgf |    fgf    afd | "A7"c{d}ee efe |      efe   gec \
| "D"d{e}ff fgf |    fgf    afd |  "G"gab "D"afd | "A7 "e3 "D"d3  :|
%%sep 1 1 500
